images/Pagination-2.svg

<svg width="55" height="55" viewBox="0 0 55 55" fill="none" xmlns="http://www.w3.org/2000/svg">
<rect x="0.5" y="0.5" width="54" height="54" rx="3.5" fill="#82B3D3" stroke="#82B3D3"/>
<path d="M30.8262 23.42C30.8262 24.1 30.6995 24.7867 30.4462 25.48C30.2062 26.1733 29.8928 26.8533 29.5062 27.52C29.1328 28.1867 28.7128 28.8333 28.2462 29.46C27.7928 30.0733 27.3462 30.64 26.9062 31.16L25.8462 31.98V32.08L27.2862 31.8H31.1262V34H22.7062V32.66C23.0262 32.3267 23.3862 31.94 23.7862 31.5C24.1862 31.0467 24.5862 30.5733 24.9862 30.08C25.3995 29.5733 25.7995 29.0533 26.1862 28.52C26.5728 27.9867 26.9195 27.4533 27.2262 26.92C27.5328 26.3733 27.7728 25.8467 27.9462 25.34C28.1328 24.8333 28.2262 24.3533 28.2262 23.9C28.2262 23.3533 28.0662 22.9067 27.7462 22.56C27.4395 22.2 26.9462 22.02 26.2662 22.02C25.8395 22.02 25.3995 22.1133 24.9462 22.3C24.5062 22.4733 24.1328 22.7 23.8262 22.98L22.7862 21.14C23.3062 20.7133 23.8928 20.3733 24.5462 20.12C25.2128 19.8533 25.9928 19.72 26.8862 19.72C27.4595 19.72 27.9862 19.8 28.4662 19.96C28.9462 20.12 29.3595 20.3533 29.7062 20.66C30.0528 20.9667 30.3262 21.3533 30.5262 21.82C30.7262 22.2733 30.8262 22.8067 30.8262 23.42Z" fill="white"/>
</svg>

<svg width="55" height="55" fill="none" xmlns="http://www.w3.org/2000/svg"><rect x=".5" y=".5" width="54" height="54" rx="3.5" fill="#82B3D3" stroke="#82B3D3"/><path d="M30.83 23.42c0 .68-.13 1.37-.38 2.06-.24.7-.56 1.37-.94 2.04-.38.67-.8 1.31-1.26 1.94-.46.61-.9 1.18-1.34 1.7l-1.06.82v.1l1.44-.28h3.84V34H22.7v-1.34l1.08-1.16a44.62 44.62 0 0 0 2.4-2.98c.38-.53.73-1.07 1.04-1.6.3-.55.54-1.07.72-1.58.18-.5.28-.99.28-1.44 0-.55-.16-1-.48-1.34-.31-.36-.8-.54-1.48-.54-.43 0-.87.1-1.32.28-.44.17-.82.4-1.12.68l-1.04-1.84a6.4 6.4 0 0 1 4.1-1.42c.57 0 1.1.08 1.58.24a3.21 3.21 0 0 1 2.06 1.86c.2.45.3.99.3 1.6Z" fill="#fff"/></svg>
